remix/Weather/meteor-fill.svg

<svg viewBox="0 0 24 24" fill="currentColor" xmlns="http://www.w3.org/2000/svg"><path d="M21 1V13C21 17.9706 16.9706 22 12 22C7.02944 22 3 17.9706 3 13C3 9.72064 4.75393 6.85093 7.37488 5.27777L14 1.453V4.223L21 1ZM12 8C9.23858 8 7 10.2386 7 13C7 15.7614 9.23858 18 12 18C14.7614 18 17 15.7614 17 13C17 10.2386 14.7614 8 12 8Z"/></svg>

<svg viewBox="0 0 24 24" xmlns="http://www.w3.org/2000/svg"><path fill="none" d="M0 0h24v24H0Z"/><path d="M21 1v12 0c-.01 4.97-4.04 8.99-9.01 8.99 -4.98-.01-9-4.04-9-9.01 0-3.17 1.66-6.1 4.37-7.72l6.62-3.83V4.2l7-3.223Zm-9 7v0c-2.77 0-5 2.23-5 5 0 2.76 2.23 5 5 5v0c2.76 0 5-2.24 5-5 0-2.77-2.24-5-5-5Z"/></svg>
